X: 5719
T: Cadgers, The
R: reel
M: 4/4
K: Adorian
Aeed edBG|Aeed B2GB|Aeed efge|dedB cBAG|
Aeed edBG|Aeed B2 (3GAB|Aeed efge|dedB cBAG||
A2 EA|ABcB|AEEA c2Bc|A2 EA ABce|dedB cBAG|
A2 EA|ABcB|AEEA c2Bc|dgfg efga|e3g edBG||

